symbols/web/camera_roll/materialsymbolssharp/camera_roll_wght500gradN25_24px.svg

<svg xmlns="http://www.w3.org/2000/svg" height="24" width="24"><path d="M21.85 19.825h-7.775V22H2.15V3.1H5.3V1.075h5.725V3.1h3.05v2.15h7.775Zm-2.075-2.05V7.325h-7.75V5.15h-7.8v14.775h7.8v-2.15Zm-10.6-1H11.1V14.85H9.175Zm0-6.525H11.1V8.325H9.175ZM13 16.775h1.925V14.85H13Zm0-6.525h1.925V8.325H13Zm3.85 6.525h1.925V14.85H16.85Zm0-6.525h1.925V8.325H16.85ZM4.225 5.15v14.775Z"/></svg>

<svg xmlns="http://www.w3.org/2000/svg" height="24" width="24"><path d="M21.85 19.825H14.075V22H2.15V3.1H5.3V1.075H11.025V3.1H14.075V5.25H21.85ZM19.775 17.775V7.325H12.025V5.15H4.225V19.925H12.025V17.775ZM9.175 16.775H11.1V14.85H9.175ZM9.175 10.25H11.1V8.325H9.175ZM13 16.775H14.925V14.85H13ZM13 10.25H14.925V8.325H13ZM16.85 16.775H18.775V14.85H16.85ZM16.85 10.25H18.775V8.325H16.85ZM4.225 5.15V7.3V17.775V19.925Z"/></svg>
